T: La Russe
M: 2/4
L: 1/8
K: Gmaj
G/G/| GB Bd | dg gf/g/ | ag ec | ed d/c/B/A/ |GB Bd | dg gf/g/ | ed dF |[1 AG GG/G/ :|[2 AG GA ||: Ad dB | Aa af | g3/2f/ fe|e | f/g/a/g/ f/e |Ad dB | Aa af | g3/2f/ fe |[1 d2 dA:|[2 d2 d/c/B/A ||
